X: 1
T: Macedonian Oro
M: 7/4
L: 1/8
R: reel
K:Dmaj
|:ABB BA GD|GAA AG FD|FGG GA GF|F2D FG AD|
ABB BA GD|GAA AG FD|FGG GA GF|F2D FG AD:|
|:FAB c2 c2|cdd cB A2|FAB c2 c2|cdd c4|
ABc cd cB|A2G FG AD|A2G GA GF|F2D FG AD|
ABc cd cB|A2G
